/* XPM */
static char *_12b7dc3b3fb49918ff1d43282f5255dtK4sudS0zcPaFFMb[] = {
/* columns rows colors chars-per-pixel */
"128 128 246 2 ",
"   c #110D06",
".  c #141708",
"X  c #1C140B",
"o  c #1C1C0B",
"O  c #21170D",
"+  c #241B0E",
"@  c #291B0F",
"#  c #261B10",
"$  c #2B1E11",
"%  c #0F2B04",
"&  c #162807",
"*  c #142C06",
"=  c #1C240B",
"-  c #1C2C0A",
";  c #133306",
":  c #183207",
">  c #133B07",
",  c #163508",
"<  c #1C340A",
"1  c #163B08",
"2  c #1C3C0B",
"3  c #23230E",
"4  c #29230F",
"5  c #232B0D",
"6  c #292C0E",
"7  c #23340D",
"8  c #29340E",
"9  c #233B0D",
"0  c #2A3B0E",
"q  c #303B0F",
"w  c #252510",
"e  c #2C2312",
"r  c #252C11",
"t  c #2B2C12",
"y  c #2D2318",
"u  c #332415",
"i  c #392716",
"p  c #332C14",
"a  c #3A2A17",
"s  c #342618",
"d  c #382718",
"f  c #362A1A",
"g  c #3C2B1A",
"h  c #253410",
"j  c #2C3413",
"k  c #263C11",
"l  c #2C3C12",
"z  c #2D3A18",
"x  c #323315",
"c  c #3A3316",
"v  c #323C15",
"b  c #393A17",
"n  c #353419",
"m  c #3B3419",
"M  c #353B19",
"N  c #3B3B1B",
"B  c #3D3521",
"V  c #422E1A",
"C  c #403217",
"Z  c #44321D",
"A  c #4A341E",
"S  c #433C1C",
"D  c #493C1E",
"F  c #443422",
"G  c #4B3621",
"H  c #453C21",
"J  c #4D3A23",
"K  c #4D3D2A",
"L  c #533B23",
"P  c #563E25",
"I  c #134107",
"U  c #164309",
"Y  c #1C430C",
"T  c #164B09",
"R  c #1D4B0D",
"E  c #17530A",
"W  c #1C530D",
"Q  c #1D5B0E",
"!  c #1F4910",
"~  c #1F5910",
"^  c #23430E",
"/  c #2A430E",
"(  c #224B0E",
")  c #2B4A0E",
"_  c #22530F",
"`  c #29540E",
"'  c #225A0F",
"]  c #254411",
"[  c #2B4413",
"{  c #254C11",
"}  c #2C4C14",
"|  c #2E4419",
" . c #2E4C18",
".. c #324415",
"X. c #394417",
"o. c #324C16",
"O. c #344419",
"+. c #3B431B",
"@. c #344C19",
"#. c #3B4B1C",
"$. c #255412",
"%. c #2B5314",
"&. c #255B12",
"*. c #2B5B15",
"=. c #2E5418",
"-. c #2E5C18",
";. c #325316",
":. c #315B16",
">. c #34541A",
",. c #3A541D",
"<. c #345B1A",
"1. c #3A5B1D",
"2. c #1D620E",
"3. c #1E6C0F",
"4. c #1F6610",
"5. c #22650F",
"6. c #246412",
"7. c #2B6315",
"8. c #246B13",
"9. c #2B6B16",
"0. c #2E6419",
"q. c #2E6B19",
"w. c #326316",
"e. c #326C16",
"r. c #34631B",
"t. c #3A631E",
"y. c #346B1C",
"u. c #396B1E",
"i. c #247313",
"p. c #2B7316",
"a. c #277A14",
"s. c #2D7419",
"d. c #2E7B19",
"f. c #337617",
"g. c #34731D",
"h. c #39731E",
"j. c #337B1D",
"k. c #3A7B1E",
"l. c #3D4321",
"z. c #3D4C21",
"x. c #3D5421",
"c. c #3D5C21",
"v. c #3D6421",
"b. c #366920",
"n. c #3C6C22",
"m. c #377520",
"M. c #3C7322",
"N. c #367D20",
"B. c #3C7B23",
"V. c #43431D",
"C. c #49431E",
"Z. c #424B1E",
"A. c #42531E",
"S. c #415B1F",
"D. c #444421",
"F. c #4A4422",
"G. c #444C22",
"H. c #4B4B23",
"J. c #4C4A2A",
"K. c #5B4126",
"L. c #524C26",
"P. c #554729",
"I. c #5B442B",
"U. c #435422",
"Y. c #4A5424",
"T. c #435C23",
"R. c #4A5A25",
"E. c #4C552A",
"W. c #4B5D2A",
"Q. c #55542B",
"!. c #585629",
"~. c #535C2B",
"^. c #594933",
"/. c #585832",
"(. c #64482B",
"). c #63582D",
"_. c #634D34",
"`. c #675838",
"'. c #735839",
"]. c #426323",
"[. c #4A6226",
"{. c #436B25",
"}. c #486827",
"|. c #4B6529",
" X c #466C28",
".X c #4A6C2A",
"XX c #52632C",
"oX c #59652C",
"OX c #536C2C",
"+X c #427325",
"@X c #4D7627",
"#X c #417B26",
"$X c #467429",
"%X c #4A732A",
"&X c #457C29",
"*X c #4B7B2C",
"=X c #52742D",
"-X c #547B2E",
";X c #586A31",
":X c #4E7130",
">X c #5A7634",
",X c #537D32",
"<X c #666739",
"1X c #69703A",
"2X c #715C42",
"3X c #796447",
"4X c #737944",
"5X c #8A7553",
"6X c #2E821A",
"7X c #298518",
"8X c #33831D",
"9X c #328B1D",
"0X c #2A9118",
"qX c #368420",
"wX c #3C8323",
"eX c #388A22",
"rX c #3C8B24",
"tX c #359120",
"yX c #3D9225",
"uX c #418326",
"iX c #428B27",
"pX c #458329",
"aX c #4B832D",
"sX c #448B2A",
"dX c #4B8B2D",
"fX c #51852F",
"gX c #44932A",
"hX c #48952D",
"jX c #4F8831",
"kX c #528432",
"lX c #5A8736",
"zX c #538B34",
"xX c #4D9331",
"cX c #4E9C32",
"vX c #549435",
"bX c #569A36",
"nX c #5A9539",
"mX c #65883C",
"MX c #62913B",
"NX c #51A834",
"BX c #57A338",
"VX c #6E8944",
"CX c #62A840",
"ZX c #899155",
"AX c #A39867",
"SX c #CFB285",
/* pixels */
"&.( X u.$XS P $X{ e S g.0.u.9.;.W ,.^.#.;.] 3 ,.M.B.uXaXO.U.%.g.g._ f.k.1.g.t.pXN X ' ] } O.+XkXpX%.:.0.j.#.pXG.g G.@.W n.r e u.j ;.} &XR j.g.$.%.+XY 1.r.#.%X@.{.n.uX3 N r.@...>.u.t 5 +.j ].>.%.8.iXb.m w.} p.0.%.<.9 ;.%...O 6 ] = = =.O.3X0.y.] < g.l 8 ] 8X",
"iXj a 0.t.A.V.{.< >.< _ 8 f.<.O.Y T.F x.$ 5 v ..} :.M.&XwXB.u.b.>.t.;.@.{.*.B.{.X.%.7 1.^ {.kX>.8.> o.y.rX&Xn.>.&X$X} 2 t.5 # <.D.u.v.@.*.l wXv.r.n.j 1.[ y.{.sXuXzXy.M.S.r.r.h { Y # g @.+.1.} %.cXB.B.,.%.*./ q.v.e.w.} k ] 5 * 0   6 -.j H.+.q.] { *.- 9.0._ ",
"= *.v [ 0.R.8 ].#.>.pXp 9.d.;.>.r.<.@.M @ P H o./ q.dX0.r.[ c.<.j 1.*.r.t.>.h.t.@.^ %.S >Xv.} ] m.M.-.r.M.[ X w ].G } 2 r.j 4 M wXR.c.>.u.7 } B.p w.n.{ r.+X>.S dXiX7.O.] n.BX+X%.] u M r.#X@.n.wXy.$.v.w.wX<.9 <..X] %.9.N.$XsXM.%.sX6 r.j @.<Xr.( *.Y R 2 1.0.",
"*.u <.>.*.c.1.%X@ p < wX[ %.n.[ t ] *X..$ V S [ ` p.&X2 [ B.w.o.e O.].v @.B.<.#Xo.( @.*X,.<.u.%.6.< <.<.$.%.r.X U.g ] 9 r.z 8 H b.A dX{ @.[ [ y.9 Y >.w.<.}.M ..hX&.2 #XBX].+.} y.g.-.u C.,.#Xu.%.*.9.M.*.y.-.M.>.j.q.} l l d.j.*.}.-XpX>.[ ] A.t.( s.5 l + [ n.",
"1.<.#.t.<.1.o.&Xr.] 7 N.o.%.j.0.M ] *X..p u %.' s.n.O.s.w.f.y.7...z ..T.>.%.>.q.0... X>.y.r.Y & 6.;.,.1 ( t.^ @ {.p } %.<.>...a * M.#X] 7 o.M.5 p.{ +X;.@.].h {.^ %.zX#.@.G.iXB.%.+.0.0.>.iX>.w.$.{ &.<./ k { ;.kXM.%.6X-.p W.D.iX{ V } n.+X@.[ v $.g.@ N { <.%.",
"N.l $.+X6.[ >. XV o.6.t sXW $.} } } < T.6 2 7.( q.$Xt q.{ j w.*.f...q v M.>.;.6.<.}.v.<.l u @.8.g.y.@.h { <.*.6 t.[ xX%.n.>.u p { M.{.%.M ;.>.j q.%.M...l ].M.# <.*Xk h ..[ o.%.M.t = ] wX*.q.[ { -.wXr.,.h +X>.+.u.+Xg.f.{ W.1.,.6.*.}.y.<.n.r.] %.7.r b +.%.] ",
"*.&.w.<.8.' @.}.N u.] &.0.{ ( X.} ] < 1.R 9 %.{ y.>.7 9.6.o.w.[ 7.$Xv.>.B.1.<.B.vXkX+X1.x.+.i =X<.B.4 k f.{ ^ } kXkXj dX} k 4 0 & 1.+X%...r...0 } f.h.o < t.M. XM.%.5 l [ H 2Xr r.w.=.t.<.*.%.[ n._ / t.<.v.^ w.{.>.} }.w.q.t.l [ <.<.%.o.y.n.m.t.%.q.7 G 1.*.8.",
"# ) M -.8.6.} ].O.&.@.[ { B.%.Z.l %., { 1...N t.1.i.( { ' p.*.@.%.f.[ i.*.@...t.aX] } 0 _.[.,.n.M.m.&.M.M.} t.zX@.y.&XM.>.<.h < 5 @.uXt $.1.0 8 j q.N.7 O.1.*X+.&.-.l 8 0 Y.^. X0 l r.rXz *.0 n.{ ^ s.0.R } {.l >.Y >...].w.n.] 4 >.l &.%.2 e 0.+XeXM.%.+.u.] -.",
"5 x L %.R ~ %.,. Xo.M ] #.M.%.~.m ] ( ( 1.n.L.B.#XR 7 k 6.%.:.[ > ` 9X-.8.p.@.&X{ 0.r.x |.;.O.sX<.{ o.g.hXvXdX-.2 t.x.t.p *X{. .].K.B.2 q.6 8 p 7 &.B.w r.%X$.2 8X9.l o.*Xe t >X( [ h.<.f.] 1.0 { ( ` 0.B h v.*X<.,.g p ..>.g.x R } z U.%.R Y ( $.] y.r.M.c.[ z ",
"# G M 7.&.n.R 1.n.m.,.^ w -.0.G.p 9 / ` #.S h.q.n.u.h 8 %.0 8.6.^ 2.s.0.%.;.T.r.Y ( <.n.# e y.B.9 k %.vXdXhX@.M.h.q.dX%.g t.bX,.ZXmXzXv.p.E >.e.U.;.B.<.iXyX9.X Y <.+ ,.#.g R.Z.:.<.j.] 0.w.:.^ / ^ W y.+.;.,.4 t.{ X u 7 ..v.7.r p.7 ] [ R Y R R $.<.9.<.o.M.g.",
"y.#.&.@.W u.q.9.,.[ ] u.} N M.- * , 9 / b >.7Xy.].7.[ %.$.< %.R { 8.$.y.0 @.r.r.2 ` M.l { w.rX9.9.gXxXaXwXn.r.y.;.*X1.kX].XX+Xk 9X8XyXM.+X%X1X,.j.8XN.].>.>./ g -.[ G.>Xc.g *Xa.%.r.z h %.;.} 9 9 e $.v.t } aXH.+.o.< 5.h l 1.%.} } 5.[ j = 8., ; ( *.y.;.7.9.} ",
"w r.y.1.6.j.t.%.[ ..8 XXz.k n.U ; ; < 3 %.u.<.B..X].Y } <.^ ' = E W 9 w.[ 1.1 *.Y &.g.B.*.} M.M.cXn.*Xd.0.] uX%.B..Xu.hX+XzX' j.n.%.wXB.g.v.B.aXc.v.<.u.7.w.%.U.j.N  Xn G.c.8XA.o.y.= ^ { < < ] 9 w 1.^ } h S C.M.t.l 6 #.( O.t &.e.&.` j j c.U x < *.7.&.y.r.@.",
"j W.M.&Xn.e.2 1.{ <.%.o.j ,.1.r.% % : h 5.v v f.].L 9.u.-.k 7.5 E 7.=.r.[ j 7 &.6.+X@.c.[ +X+X+X@. X$.U.Y ..@.*.$.7.M.&XbXvX<.u J u -.cX0.6.d.>.#XaX1.{ u o.,.gX2 4XnX}.e 1.*.} -.-.e ^ } $ e ] ] ..T 2 } X.Z A T.+XO./.N 9 *.+.r.( } 8X0 1.K.{ } 9 r.&XwX] / 8 ",
"t.v.Y -.r.t.{ 3.B.w.*.0.%XuXe.w.y.5 t 6.9 8 ] j.1._.3.( ] r.n.2 7.[ Y :...$.' ^ _ r.@.<.[ &XM.[ ].>.F.1./ t +.wX} <.y.9.CXbXU.{ V H.r.r.wX{ R %.g.&X}.>...%.+X( 2 $Xn k * t.%.] -.X.' R } @ Z 3 @.3 U < { ,.l #.A.6.iX;.lXv U.T.G.' 0 } 8Xr.} < { zX>.s.j.M.uXM.",
"7 R M <.y.&.{ k.r.%.1.H.nXl {.j.R 0.2.W &.B ^ 9.1.Z 6.&.$.zX1.2 r.+.2 -.;.< 5 >.<.0.].<.+X<.( M.iX$.C.{ ;.>.#.wX/ ( ~ nXvX1.vXjXv.-.n.[ j.B.v.] r.k.0.1.<.1.%.5 <.zXs / l r.^ %.7.;.2 9 l u e 6 9 9 > - ^ v e.D ( ^ } +XN *X' T [ ( 9 9 8.s.rX<.>.u.*Xg.8.} 7 ` ",
"o.' *.O.<.aX9 ; {.v.} aXw x.v.N.g.wXsXg.xXiX^ *.<.k a.7.<.2 +X1.R x.M.%.8 x 6 9 ,.n.*.u.M.' *.v.<.;.B.%.o e ].$.B.w.%X$X+XE.pXr.{.n.$.=.zXe.B.%.t.B.Y *.;.{.p.y.w.+X} ..- y./ 0 7.c ^ 2 e X u l 5 9 9 3 o.;.K.m < k kXP aXS R.2 0 / ^ 7 < 7.iXrXg.7.2 n.9XR 6 y.",
",.N.-.1.t.- v.M.,.N.r.#Xe.{.n.+X%.E i.k 0.6.j.%.0.O.8.d.v.Y v.} { *.<.] e P p < 0 %.n.r.r.&X@.o.B._ o.=.y.e W I g.t.v.,X1.%.%.zXg.0.$XY @.{.].B.r.rX{ ' r.;.y.b [.2 = M.Y u.0 l *.u { < j V g #.7 9 7 j [ *.(.L Z +.}.R.H.M.L >.y > ^ 7 <.M.#XX.d.qXN.] yXY < ^ ",
"<.g.>.x O.W BXsXpXo.zX{.{.j.d.g.$.U 8.rXwX$ ] uX:., 9.} s.W v.-.R ] #X{ x L +.; 7 { %Xr.} * *X9 } < +X2 t g.W 9 v.[.7 %XpX-.} u.t.*.y.#XM.B.@XpXM.wXsXR <.%.:.,.kX* 2 > 8 M.<.%.$.3 2 7 n XX;XL < : 7 l 5.a I.J V @XZ.V.P Q.t.c S , &.%.t.} 9.e n iX6.&.8Xd.9 W ",
"<.$.,...pXy.U >.t.%XfX,.8 l &.} Q 8Xd.-.9.} g 0.h.W 6.1.n Y $XY 2 & >.%.G.'.|.< < u.u.{.g.>.[ [ , <.M.t < , q.t.n.U.;.{.} < ( $.&X] ] } {.r.+Xt.+X8X&.B.n.n.B.1. X# -.1.k r.0 < { T.< q.%Xx -XK.^.I.8 < 2.L <X'.`.A...} (.^.c.O.@.&.w.%.1.@.s.&X,.<.R 2 s.g.$.r.",
"] 9.8.,.#.<.} -.{.%X&XF.,.x @.%.8.%.2.r.*.B.~ &.*.t.6.>.< r +X( < o g y.[ $ w @.n.1.t.+X[ <.} O.2 n.$Xo.$.Y : M.M.t.{.x.o.{ R W n.;.7 o %.n.T.$X+XM.-.*X{.} R %.T.<.7 g r -.r.r.t.r.j.aXe # Z %X`.g Z ~.Y.A L.(.t.p S 6.b u e r.] } <.' M.+.%.>.z.q.9., 7.B.( < ",
"g.&.y..X<.0.&X@.*X,.U.I.F.R.%.9.2 $.c ] 2 n.6.$.` <.y.] , o.c.v.@.7 j t.<.,.w 7 } Z o.>.} 1.t.} 1..XM Y *.j u.t.} #XU.E.[ ] @ $.=.v./ j g.] 8Xu.f.*Xv.r.pX*.W r.M.f.%.;.M -.:X0 M.!.#X< l #.b s N Z (.6.Z A (.~.y.@.*X$.4 # V o.>.k &.-.$.$Xn.q.}.7 } 7.B.} q.( ",
"+Xl u.X.[ } [ M.zX-.+.u u *.;.( a.+ Z 4 ] z.( 6.%./ 9.0.' ] @.{ s.M Z.<.u.p # } +.D ] ;.>.@.l ^ n.@.7 $.= z.%.O.t.<.].9 v - 8 ( ] ]./ u.W %...1.%.@.n.9.B.q.7.t.;.%.8 j g *.nXv.M.%X[ R g L N [ v.# L rXF.+.@.r.w...] b x V l ] >.j 2 <.{ r.n.j.c.;.|.M.j.< g.B.",
"M.n.OX$Xt.[ 9 U.V.t.+Xe &.x 0 *.&.0X%.] ;.@.< = &.` *.[ %.w.5. .Y $.l o.qXk @.7.%.o.] } ;.%.g e aX,.& q.g =X9 <...%.$X$X$X<.] p.9.vXs.] ; { `.<.:.-.:.r.*.{./ >.o.*.) _ +X<.>XxX&XW.R 2 I.V V x.n.} x %.,.>XXXl T.p V.j - x 9 7 O.t.- j.1.= n.R iX;.P.c.d.0.g.%.",
"{ n.x %.:.y.-.%X....<.m.r.p *.7.5 F F Z @.0.6.Q ' ' %.;.8 v 6 %X3.9.} M <.7 } } p h [ } [ q.u ;XmXzX[ <.D H. X} q } {.%.b M o.&.R t.B.&.8.&.W :.;.a.y.gXg.#Xs.B.h.j.g.n.7X&Xs.+X< e uX*.K 5XL (.L.aX&.^ L G R.,X).P >.N : %.<.U.>.M.^ < X.s.B.r.k { 1.%.wXt.u.O.",
"aXM.wX{.].M.<.$X*.*.y.8.*.uX^ &.1.x M A c v u 9 W 5.' :.l w v.A : 0 9.^ %.7 ( c C.p @.%.<.y.#XlXMX<.4 B.O.#.;.k V y.,.<.{ p = &.] y.{.^ { Y 7.e.e.B.g.g.%.>.[ @.] ^ %.5 k xXaX1.< 5 2 } &X`.'.G (...0.+XZ ,.M u.kX}.M.u.r.%.O.d O.y.r.r.c.%.T.j.h :.<.*.8.$.*.*.",
"0.[ >.0 / <.1.#X<.0 -.g.1.M.M.R j u K u M l e 2 ^ Y i.k.7.@.g A g a $.&.&.' 0 Z g n +Xo.%.k #Xr.+.[ + rXM.B.;Xt j %.@.h u.2 [ R 9 r.1.^ $.*.{ 8 ;.pX8X$.%.r 1.@.] { 7.( %.zXuXj.< - 2 , F.{.!.L (.c ' [.=X,.t.y.f.aX8X9Xs.9.v.o.2 >.] } e >.h.v.r.uXN.t.g.d.7.{.",
"B.w.$.<.0 [ z.y.] y.:.=.aX@.{ n.7.y.c.XX>.+ 9 2 Y 2.qX9 6.8.] u u p 7 *.o.7.9 x o.;X@./ *.].n.T.#.T.- M...,.-.r.j.*.[ @.m y.p ] *.o.o.<.o.e 9 ] h.e.:.' } e v.l o.-.Y $.&.*X] <.4.* : : a G.v.@.x.p $.&.*.#X<.7.k e $X4X#.N u A T.<.[ o.k r ] 1.R q.8Xq.eXeXuXqX",
"} 7 r { r.g.$X[ R y.{.dXM %.R R g.9.8.p.q.o.R 2 E { 9.7.%.2 T &.c e { d.a.i.i.p.p.8X&.`  .x.{.kX,XT.@.y.0 G.k # @.{ k.y.Y 9 *.k 0.*.-.>.= V E.B.e %.) w.wX*XaXt.@.$.7 ] r.aX5 t.' Y 5 > G /.@X<.v.{ %.} } ( n.y.g t.%.OXS @ V V Z X.0 5 o.l w.p._ &.[ 9.&X0.iX] ",
"7 0 a 8 < %.$X<.v.M.y.r.%.&.g.yX8.-.N ^ T O.E E 8.q.2 w.v : * 2 E k pX1.-.7 [ E { e.= ( u.%X&.{ t u g y.[ W./ x j 9 <.@.;.g.q.%.$.k [ 1.] [ B.j e ] / / %._ 0.7.y.t.y.] r.*X&.h.i.6.b ; &Xt.2 Y t.>.( U ,._ M n.O.{ V.M |.w J $ g +.0 0 9 -.wXY ` ) / 6.q.&XpX9 ",
"z 4 A g , { 1.t.8.N.uX7.q.a.k 1.N O.%.} 9 R > R qX4 e ^ 9 - : j } $.: E.( ].j 3 9.[ v 1.c.1.j ( ( 2 [ ,.v x jXv.- 9 O...x r g.y.9 k k @.0.0.t.k l p ( W -./ ] } o.9.t 1.M.x.[ w.^ + i.7 y.Y 2 9 o.<._ R l m z { n.<XSX9 t  XZ u Y.u >.M.n.o.g.U ` ^ Y Y <.uXt.k ",
"l X L m *.pX#Xy.@.pX*.&.a.2 <., 3 <.=.@.K.R W &.[ # Z ] 1 X e S >./ I { %.0 t ,.q.} 1.@.[ >.= - k b.&X&X,XnXzXv.j.' | v v < M.*.u.] l r.[ ] x.r.R T Y %XpXq.q.g.y.j.s.e.g.%X} %.9 l u.B.-...9 [ a ^ >.M l.o  .7.T.M.^.: t V.].Z s 8 0 0.{ h %X=.{ ^ Y 6.w.iX*./ ",
"] 5 ].M.q.y.@.2 #.#XM.v.>.1.aX2 : # F.v.2 2 > g.W M Z 9 , = g ] g _.$.B.< 2 O h +X,.] } ] @.x = @.l n.*X1 O.} %X>. XaX}.@.c.7.{ ] B.&X:.- j 2 Y %.# ] #X0./ [ ;.0 *.k [ -.}.r.*.<.<.{ 0.6.7 7 v 2 w ] } . x %.$.y.*.r.4 % g u.k.f.wXrXqX6X-.r.] } >.2 a iX*.$.>.",
">.%._ ;Xe.,.t.*.n.+XM &.# 0 M.2 >.,.+ [ u.6.R $.* & #.{ ; ] o.H F.x.M ; r.Y   ] ;.,.d.9 ] l O e ;.,.<.L.1.%.7.zXj.0.j.6XiXiXB.} 0 / vXk 9 9 2 P.%.m l &.g.%.>.o./ / ;.< -.}.>.<.v.R t.&.' 7 0 1 4 g ; } ..l M 9 s.] <.}.O.[.kXkXnXbXzXvX.X[.0.9.2.$.>.x aX3.*.{ ",
"M.j T.u.8 1.O.%.&Xk 6 [ P H.{.] < * l o.0.>.g.7 ; * c @.iX* 2 OX+Xz.].-.$.< o } b ] t.2 < l k ~.XX,.+X7.;.@., ;.9 x.f.{ ,.8 -.1.,.0.<.n.uX] $ Z ,.^ {.* - d.h } q.*.} < ] ].} ] 7 b.} &.W 9 0 - r # @.^ ] 9 e ] &.].%XaXc.,.M 1.<.$ @ <.T.6 -.[ 2 W E <.r.5.dX} ",
"o.*.n.>.,.] ..X.uX[ t.,.!./.G.G 7 < 2 ] w.*.r.r ,.<X>X{.M.y.%.*.S # z =.[ -.< 0.C.;.@.&.( %.l O.r.<.,.K G H...r.e.% Y.#., u $.[ <.>.,.fXd.>.# O j -.v.X < { } [ #Xh } < 9 1.] ..t =.pX%.9 R 2 < t lXO.; ] 9 7 ].}.u...{.o.V e V.,.N g 0.Z ..{ k : > x $X;.` j.2 ",
",.( i.r <.;.v t.t.%.{ V J R.#.g M Y < 0 } <.] N Z L [ ..+X] } V C [ .Xp = $.} 0.k ,.1.;.Y $.{ >.c.*.c u >.t.1.].;.c V.U.7 o { { { < } bX} n.%.z.v.o.1.t 4 j g.v.%.7 0 9 * <.,.n x -.8.M.h E < < zXO.G ; < @.c.1.Y r.} U.%.H t k @.{.g k Z U.%.k ^ ; g *X9 ` ' 9 ",
"<.B.q.* 2 ^ o.>.[ u.v u # R.].8.+.a 5 n.0.*.< 0 $ >.v [.R.M.{ P.u g $X9 , { = *.[ $ P <.&.Y @.=X[ / ..c.J.yX%XdXkX=X X%X@.2 2 $.< % 2 zX..@._ aX<.N ,.I.,.O.*.v.7.0 7 t 8 ] ,.5.&.t.v.$XaXB.c.lX*.<.5 , ,.@.j p } &XQ c.] j [ [ :...e 8 + ] ( M.&X&.@.n.9 w.$.3.",
"_ R { ( *.8 o.<.j 6.+ $ i nX7.e G S ,./ ] *.< 7 0 c ..T.+.B.sX9 g G [.).1Xt.T *.c j ^ %.Y %.,.M / ( n %.$.D.P #.G.I.Z.b #.,.u.n.,.H M.aXv v ,.] n.( t.u Z V.%.7.<...7 .XZ _ k.n V %.R b.f.d.xXhXdXpXB.y.9.9.6.h O.r.2 <.[ v.} # h l O.7 fX: >.dXn.2 [ r.$.j.e ' ",
"E > >.; O >.[ <.| $.x G $XiXz.g !.{.L Y v %.- [ [ 8 z }.p 5 ;Xj.n.ZX|.V e >.c &.C 0 W ] x n.O.9 ^ s -.%.=X(.R.@.j u O.A 0 @ ^ < ] <.u.*X4 j ,.0 *Xa } d.d.eXj.b.q.<.$Xr cX{ X.@.W %.$.8XyXt.N.d # v.$X{.5 6 7 p c./ 2 T.2 %.%Xu S ..@.[ 9 5 T.+.,.1.M.<._ ] ( ( ",
"Q 7 ] < O x v =.o.2 #.{.0.o.t.hXB.bXL 2 ..v g }.9 k j R.S +.E.%XdX>XN.g.W ^ J.$.< Y t M 1.dXsX-.t Y &.Z P X.U...O.# @.@ l { ^ < * 2.5 $X>.].].@.@.zX[ r.< 0 / &Xp.z dXi.r.iX( @.o.j.<.B.w.%X2 1.o.M.p p {.1.0 6 ,./ <.,.n.y.=.} P o.{.,.,.,.dXOX^.W.].} 2 M 6.k ",
"E l.2 -.%.>.# -.*.l r.<.g.y.,.o.F.!.g.*.v.^ x.8 t.M e U.F.N p 1.v n.<.v %.q.9.$.< 2 #.dX{.>.9 ^ 1 U T.Z P ,.l [ ..# ,.U.Y.^ &.9.7.$.>.*Xp } >.9 $Xz.T.o.Y q.} Y.B.p.wXr.U 0.T.y.;.U.( ...Xq.9 0 g.y.t.1.N.wX#Xy.M.y.B.} n.w.0 e V.,.1.>.<.-X<.r.R.OXn.$.] i &.3 ",
"T < h l * m L.j.%.] j.-.<.p t.F g V %X( M.2 @.< g.r ,.t.L.|.#.F.o.$ u.^ +.%.$.7.0.$XS O.w [ < 9 I S R.G G c 0 ..0 5X8 g C <.[ c ;.1.9.pXl Y.<.] {.#.X ].8Xl i Z 6.0.-.#X%.n.pXr...v y.} R.7.*.e.u.l @ X.+.G t c.o.= n.r.*Xo.t.} p #.+XzX>.lXj._.mX,.v.( g.3.&.r ",
"> $.( <.r.wXd.7.6Xt.] w d.c t.g V P V M.] ,Xc.,.#.;.g.aX6Xe.%.<.7.9 ] r.%.U.x uXy.7.U.o.@.*.} 6.2 5X+X8X+.@ 9 [ ..F m D c < b 1.6.p 8 %X0.T...[ n.>.r M.u.o.o.e.p.8.r.sXeXq.<.n l %.t.%X*.*.d.%.} G G (.S Y u %.t.&Xn.[ c.6 [ X.F.].,XJ 1.1.f. X!.M.#XwXN B.0 T ",
", $.>.%.^ M h y.f.*.^ } y.8 <.b P (.Z G.r.<.} ;.l F.+XO.v N p n./ %.( ' n.@.M.} Y p.1.{ X 9 < > $.f.%.V g @ 9 %XV A A A 8 < l +.*.p t  XH.A.7./.W.o.j.;.#.p ( T Y &.*.sX7.j.9.aXO.f.v.>.u 0 &.7.j L L u Y.1.;.1.x o.dXp [ v 3 u O.vXY.u.pXf.' hX&.8.r.%.[  XwX{ ",
"jXzX&XlXmX&X7.] t.R ^ i.r 8 @.Z.G K.(.g g.;.*XR l.t.Z.6 v # M p 9 e.N  X1.n.6.8.y.0.%.$.$.[ U 9.2 L ..e g @ X.c.|.g I.P < 9 r @.%.h.1. XM.@.} $.1.r.] 7 7 %.T ; 7 -.$.aX%.t 1.N.g.0. Xr # 9 %.8.j x ,.y.k %XS [ 8 ^ @.aX@.+.Z N aX} #.~.T.7.t.N / Y ] -.f.,XlXzX",
"W 6.q.w n &.< 9 } &.- p.Y h r o.Z L g # %.t.r.<.1.E.U.0 [ } $X^.l bXz.].M.<.n.5 %.%.nX{ ( 9.6.u u e o S @ Z +Xj +.Z 3XV < 0 g 2 o.+.1.x @.g e ] <.e.6 0 9 ;.-.l ] %.R aX&.5 %.{ #X} {.{ 7 j *.' wXW.>.;.l e n.M 9 ; b [ aXX.Z =XR.k u.XX<.u.&Xj { <.zX Xt.m [ #X",
"o.E W 7.0.< s Y } r.R -.< 6.$.:.D.Z Z $ < M.h kXr.T.Y.iXpX+Xt N zXw.{.@.< < } r.9 >.v.-.&Xt.n.O.x # # [ D ]...e.u u A O 7 5 Z E G.b v.t #.Y.>.+.k.] _ k 6.%.N 7 ^ } Y &X9 a.^ 6 M.y.1.7 Y Y q.g.2.6 p u +.@.+.u.] > G.t [ aXX.{.0 v u.M.6.#.{.1.%Xv.[ ..p 8 6 ] ",
"*X> l ( &.%.7 9 9 } Q g.d.$.Y p.*.Z.#.O.l B.n.zXaX{.].=X].B.l kX..,.q.%.V.5 #.>...< 2 9.$.Y ^ Y c.K u N ,.,.q.e O # u # V G A T X.N t.5 h `.'.%.1.X.$.W T ;.%.( 2 ] ( pX9 ( [ $.>.n.r.k e g.*.^ W r u g Z b >.n.[ : o.G l o.aXt } 1.M.M.8.v.v.}.i l 5 ..S 1 Y d ",
"R.qX&.2 2 R 0.%.-.j.y.1.w g 7 r %.7.^.c.dX&X{.W.nX*Xn.Z.].>.*X@.[ t.-.$ [ 0.} Y { 2 6.Y W Y { Y } ;X# #.8 %.c 5 u '.A G V L A T +.@.+.} p g L.t.o.{ ] ^ Y j 9 2 j / ( pX6.>.%.&.[ v.0.{ j.n >.$./ 6.O lXv V.V m M.8 V.# c 1.*X;.m [ g.h.1.$X&X2 g a *.u.x { * G.",
"+XxX2 u {.s.W s.9X^ Q @.$X&X&XT.u.u.$X1.+.9 y.%.kXc.u >. XkXx l ,.%.s.} q h y.5 ] &.< ; %.$.y.u.Y 0 lXp t A.'.v g P P Q.C.K.L I v @.m } e A %.O.] < 2 [ 2 < 9 . & / < {.q.r x 6.<.n.+XwXg.@.c.} _ 3.} r.~.P g Z T.[ o.@.=X+X] %X}.[ >.y.[ $Xo.: o.0.<.t.wXpXkXhX",
"{.#X+XO.; ( i.' *.^ 6.u.pXOX=.V.{.1.n.B.N.r.w.{.%X[ n.V kXp.c.o.-.o.9.6.o N %.qX0.y.v.&XZ A * u.2 W #.lX%.<.u.xXZ.L (._.].t.S I O.M u 2 6 G &.b % O > < 8 2 < O 9 2 l v.> { } *.U.1.b.r $.{ qXy.Y m.w.>.M.H.G a ,.M.u g R.1.j.,.O...M.q.{ +Xl M.j [.].#XB.s. .|.",
"1.=.v.u.*.W r 2 q.e.8.{ u M ,.1.8 8 8 %.[ j u.+Xv.O..X.XM f.l n.] }.8Xk - ;.aXu.&.j.VX2XG A m #.$.9 6.q.BX,XF.g #.g u A Z H.N ( @.N 7 o ..[ r.j ^.O.> 1X&.5.Q 6.R < k x.Y -.2 $...t.,.c.&.N.j.$.c y.2 & Q.zXt %.A t.S ~.1.x.( #XdXe.w.aX<.t.3.H.+XM.c 0.j.e.e Q.",
"<.< t.-.y.t.0.<.< 7.W 9 5 n.f.+X3 F.0 0 ^ l %.Y.#XM.%Xv.3 w.] >.k.t q.l v.rX6.N.wX*.{.h ,.>.A.t w.s.n.zXT.[.i M m.Q.L L u <.D o...4 <   2 $.2 /.;X2.2.<X* 5 , ; < 5 ,.] h sX2 ( :.;.l n.qXg.- q.7 $.< # F N zXF.e V.@.G.@.3X*.%.M.zX0.gXrXM.n. .F #.*.g.o.0 k <.",
";.= r.W q.u.>.>.Y $.( 9 ].1.V M N *.&.8.R $.f.1.l 1.%X-.k %.j.Y k l 7.].xX8XwXs.{.6.{ j G g 1.9.y.,X{ -.m.zX.XQ.] J P i P.0 x v ( < . i 2 $.E g.] ; r u g p *., , 3 <.p : l $.<.o...%.%X%.g.O.>.t.> > g + -.OXv.O.e N.>.;.#.} o.c.B.BX-.u.{.8XQ ; [ q.A *.O...W ",
"$.M <.*.O.~.e o.} S.%.v.<.+ U.^ m P ] Y.Q q.{ Z.n }.,.0 e.q.^ & # ;.n.sXs.M 0.&X} $.7.9.8XN.uX.X*XpXM.%.p < zXa [ g A u V v } 8 ; 2 # j.T ' R.D.7 % 3 s G K.V., ; 8 >.e % H.y.{ j.7.<.x.M >.$.t B.; I A , K._.kX,...y.>.J N ,.Z M v.BXBX>.l ,.N q.q.-.H %...6 : ",
"j ;.>...= O R.U W. X[ [ -.2 o.g %.d.V.V } R ] @.j $X,.q.*.] 6., j t.B.Y.i.*.&.hXq.6.6.W 7.%.cX+X&Xd.$.2.! h >.R.: u G i C 8 ) = 0.t.p.E 7.%X1XXXy.1.@.Q.P u I._ ; ] v.a g V.*.N.M.r.j r.v k *.[ <.: > * e # Q.~.@./ r.1.[ [ 3X# +.B.r.pXdXl u >.iX$.e.] >.5 = & ",
"^ @.[ ^ = a X.+.c.>.] 9 { k } 2 u $ 8.$..XM ^ @.#.1.g.q.} 9 &.] kXB.#X] 9.6.E { dX7.w.$.[ &X&X#XM <.&.7.M W.&X*XR J Z u K.L.%X[ Y Q W v.$.1.H.V v.B.,.G.#.F.l.v.O.<.F.u u o.$.q.-.pXo.-.O t $.B.q.Y E r.{ o.l N *Xt ;.} x 9 3Xg T.wX} v.pX$XN r.j ] } 9.%.X u e ",
"^ ..k ( - g 7 ,.8 ]./ ] &.2 { e Z a 6 <.BXM ( %.1.v.{ z.z.].y.M.@.u.vXrX#XE g J 1.0.R >. Xv.X.1.&XR.].fX$.>.x.+.>.u i i x.S R V.j.> %.*XvX[ $ # ..V -X!.@.p E.T.#.t.G.# @ } $.$.y.;.j.&.X V 0.N.} 7 > +.] Y.T.#X1.t %.@.t.9 s ..<.r.>.o.;.M.u.k ..%.[ } &., p 9 ",
"2 l ] Y.+.@.o.} 8 t.* 9.] k k u J # ^ } gX[ / [ ,.{.c.N g 7 0.n.:.M.( p.xX*X+XJ.,.t.l ].<.>.,.+XL +Xn.#.S 9 <.0. X# e ,.A Z W 6.<.b Z %XxXR.D.$ G.u '.aX/.o.t t.n.c l.{.1.1.n.] 0.k iX^ O c.( N.9 1 { ,.c.!.@.v.@.n.;.} c.9 8 <.0.O.o.9 1.u.&Xt [ [ k } 2 $.( 9 ",
"%X,.aXj # j ^ { 8 n.$.Y 9 7 ] # (.x < 0.%Xa.+X$X%X@...@ O <.<.].-.<.%.*.{ | aX#.n.<.c.#.M >.A H.v.r.sXc.1.f %.8Xc.X.@.Q.V N q.-.3XG F.c.< kXF.H +.u A I.+X+.l t.l ].F t >.*.l.9 >.u.+X9.k +.G.iX] Y $.Y.a V F 1X>.$X[ ] x.j [ <.g.c o.0 1.<.r. Xj r.y.0.8 9 $.$.",
"jXj u.[ d v $ O.t.M.%.W { 7 9 e g 7 p uXH.#.rX;.1.c.$X*XpXn.T r.<.( 6.< : < 0.$X$X1.c.$ b <.u m c.- 8.iX}.o.} d.] ].O.x c q.1 S Z Q.%Xt < <.{.x.j $ P A (.&X1.:.M.{.*X&.6.*.<X: 8 B.aX*X$.u W.B.y.{ $.d !.uXXXsXwXsXwXrXrXy.l 7.g.+.o./ 1.} %.v.7 o @.$.g.y.rXq.",
"g.r.] v c 6 g c [ *.M ; -.] < v I.1.1.aXn.<.*.wX1.t ] 6 %.0.&XaXr.k 5.7 & U.y.] <.%X1.e r ..t +.O.$.2.t.B.t.r.O.M.*Xn.n *.6.[ V {.p zXN < { u &X,.J C.H.I.L.M./ O g | pXB.z ;._ %.y.@.1.y.,.r.N.<.$.>.H }.1X@.U.=X%Xt.[ <.} r.sXM.O.[ 8 <.0 ] %.{.1.<.{ &.2 Y &X",
"< ( 0.<.w X Z j r.U h 2 < - o.( / c..X#.X.9 ] o.wX{ h { : W e <.{.n.' o z.= -.t.@.o. X,.j k %.z n.q.W T.n.M aXpXB.jX] ^ $.&.O.# V.[ vXt * / u ..pXZ V U.e 0 } 0.u # I.$.yXhXiXw.W %.>.[ 9.8 t.M.2 * b.iX$.T.U.+.G.+.,.%.t.1.R c.t.u.*.<.y.8 [ ] v.[ } < &.{ &Xl ",
"p 2 } h 0.} g ( } O &.e ; * g ..t # #.r.aXM.} ;.f.g.{ q.*.Q 7 1.] { {.,.x.dX>.v.{.c.v.nX,.k 0 u F.$.&.v.,.n.$ } hXt.} 7., @.q.Y.(.l *Xb : 9 G P ).|.u G >.v z y.t g r.g.$XD.0.B.#X%.>. .&.j c.t.< 3 +X*.gXd <.=.@X<.t.t.9 9 Y o.>.+XM.} @./ [ / M.,.} N ,.pXE $ ",
"G 9 9 0.X %.*.[ h 3 z t ] }.XXA 9 r M.t.-.9.#X>.y.wX8X9 2 W i.1.^ Y ]  XdX1.0 ;.l j R.l ].[ 0 + t 1.Q c.>.1.@.sX-.y.<.%.& v 6X1.D O.R.XXv.&Xg.n.kXnX@.M M v r.}.8X#X2 9 >.q.F.v.c.M.B.-.( ~.u.1X+.%.n.j.q.rX>.# b N +Xt.@ , 2 pXN.z 0 9 v &.] -.$.uX-.N +XW 1 @ ",
"K.7 9 * = ( ,.u.O.c.g * Z A [ y.sXyXgX@.< 8.e.#X$XcXjXaX%.2 < e.( Y t.{.9 >.o.o.0 ] 1.{.#X@.8 e 9 <.:.;X#.z sXy.] r.:.{ k z.p.<.7.B.%X,.uX..`.# I.D.v.,.v.aX2 B.r.*.Y 8.p %.d } @.u.B.r.y.*.g.k.8X9XrX9X9XtXy.$.A.o.@.l x 0.M.{.-.v.0 d.7 7./ <._ r.y.hXz Y 7.a ",
"+.p 7 : k j.[ < { ;.Z % 9 } R.[ L D B.sX^ *.M.} n.>.2.f.=.kX$X>.^ g.>.c 7 0 @.j.t @.,.u W.>.;.9 , %.%. .r %.aXq.%.y.@.] %.u.B.M.>.].Y.J.# m.s @ V ,.wXc Q.pXu.,.S j.T $.[ k e W l { r.M.q.y.g.%.9 ..oXO.8 [ @.c.u.*.:.Y n.*.=.[ B.-.0 / $.` o.%.^ ] {.@.y.U.S <.",
"B.b } ^ Y &Xj < r { k 2 u H 1.G L 8 n.2 j.M.6.eX( u.g.R y.} ..{.*X-.k.g u 6 } ..#.U.t u [ S.>.;.g.%.R O.x n.n.aX< f.1.v.0.*.7.O.f +.~.U.m w.{.{.F.u r.rX{.0.^.g S %.8.^ r O.j $.&.,.{ x t.*.y.r.] W./.$.t 9 4 y.H.1.>.y.&.W : O.n./ ] Y Q N.S V.9 1.uXe 2 S +X] ",
"g n.,.R 6.[ g } V.^ ^ l e / R.V F e t.6.<.w n.j.2 } ;.M.w.9.v [ o..X$X8.r e / 8 ].,.Y 7 u zXM >.[ =.Y x. .kXj #X] u.o.&.{ ] ' [ u M W.n j pXu.P ,XF.,.wX$Xl g z.2 2 s.{ { ' $./ O S { { l $Xv.<.<.,.1.< F e 7 8 {.|.y.>.9 0.g.g.+X0 } o . 6X,.x <.v.o.7 k +.N q.",
"<.H.G.l 0.c ^ p ^ 9 0 9 - ;.,.$ X N u.o.l p h y.y.8 <.1.M *.' [ 7 ] @.%X9.#.X T.^ @.v r ,.e [ r.[ *.Y v.n.@.V r.M.q.o.] *.$.8.%.{.<.T.<.}.}.t.;.o.,.+Xu.c.j e c.* : { 6.8.&.] c ] &.$.+.n <.B.-.n.] @.< @ $ [ +.<.w...r pXaX&X*X+XM.9.o < l.qX+.+XkX1.9 6 v ^.7 ",
"7 -.t.lXH.u u Y $.r e < wXO.#.V S &.r.@.^.} u <.i.h.-.$.z.%.( ) 7 ^ [ N }.k.O./ h ..l r n.I.XX;. XU %X1.n.1.}.dXdX#X+Xy.x.M.iXn.o.@ ]. X] t.@.<.u t.j.vXt.} @ $.j : { 7Xx k %.+.( ( %.L.$ Y 1.sXm.0.q.$.t T.N .Xv.r.0 X u %.zXu ,.] %.;.Y $ 9.wX>.* {.$X5 M 1.M ",
"9 <.r.s.%Xg Z P 9 ^ 0.iXr.' [ m &.= #.1X<XM u S i.< y.R ,.k { / 8 x 0 r A t.1.%.O.t 0 >.n.H.Y.-.r. XT.v.v.&X@.M.<.r.0 < # Y 2.9 ] 9 pX>.H.t.V y.C p.h.&XfX>.n.$.[ %.R &.{ Y } 6.$.h ;.J.t Y 9.#X$.*.N.} U.@ Z @.-.w.k X Z } n.N 1.' 0 2 ;.[ %.g.@.V l [ $XR.N 9 ",
"7 @ *.9.M h V P F.< O.T.$.d.b.$.o X } } k '.g a &.1 o.<.t.o.7.&.7.3 < %.ZX2.h.1.#X{ 7 [ g.g ~.c.$Xh.} l <.r.} $./ dXt.v.].1.8X< t.} 1.u.@.o.Z [ q.d.B.pXg.$Xt.&.&X2 ] { d.e $.p.= ;.$.g 3 *.n.&Xt.&X@.M.r.# j %.G [ -.z >X] >.*X1._ v < 7 ] ] y.y.Z $X] l %XN ;.",
"p u - 7.3 &XV G K.^ %.V @.< &.r.p @ 0 %.9 5Xa A ..R $.<.k.[ ^ 9 s.d.%.; j ] ] cXB.k.qXwXwX Xr.}.0 ..< ;.t.r.9 *.%.#X< - @ v.6.9 } &X#XgX+X>.t *.*.p.o.[.+.1.&Xm.<.{ = ^ 8.( { &.h 9 r.%Xy.Y x.aX%.9 >.] >.n.pX&XpX&XpX*Xv.O.e n.x ^ 9 = & 2 [ w.w.i 0 <.M Q.mX<.",
"S G %.{ ] F.c.V I.M.] 1.@.9 Y -.&.o V.} @.L A g ] &.^ ] } } { u.b * x ; < l | R @...t M.g.M.B.u.wXw.*.o.t.9 7 [ ^ M.r 5 u X.W 1.] M.#.@.} }.M.y.y.p.O.W.D.<.} zXc.R Y 9 6.N.6 E >.+X>.+ } ;.v {.} } n.+Xn.%.g.O.] T.;.} 8 u g o.y.l 9 n X 9 o.{ o.r./ x.$ [.!.OX",
"pX4X0.l { c n.Z $XD.Z (.6.7.U.{ t.tXO.] o.P H 1 M &.7 9 ] } y.( F * L Y ; ] aXk +X@.l &X%.X.v.%.<.R 7.u.r.2 * { ( t.# L g Y T.u.>.n.R.pX#Xv.<.<.*.p.O.U.@.;.jXaX} k 5 9 g.R v #X] < ] o.%.r.M.aXn.1.h # [ ] r.n.{._.x { > X D j &X2X< < + < [ 0 -.g.{ 6 }.u 1.j ",
"h %X7.0 0.{ Y.+Xu.b V V R 2 ,.d.w.Y ^ 7 <.P.* } g ' 9 ( } %./ $.t O.g < 0.pX%X^.U {. XM.m.3 1.1.t.3 R <.$.*.{ 9 -.r.j F O.6.+.>.#Xt.X.@.&X>.9 } %.9.o.1.x &X{.p n.r.r / f.M.pXy.7 < o.* < } 1.T.y.B.r.p k ] k @.>.} 8 ] Y X 0 a ].c 8 6.- 8 l K.Q n.+XN $ .X;X7.",
"[ r.n.t *X^ + B.J.V P p &.0Xi.j.0.5 t.2 6.7.M $ v 2._ < %.Z 0 } B.# *Xp , 2  X*X$.u.M.g.$Xg.rXgXN.j.8Xt.1 Y ( $.M.#Xk k [ -.M.q.7.$.9.[ ..@.<.k / 7.<.O..X[ %X@ <.1.w N.B.j.* ( 5 l >.7 o...7.[ &.{ ] M.n.M.<.n.$.*.V./ 2 M g G Z.[.%.R } >.%.p 8.[ X.n .X<.T.>.",
"6Xj n.dXi ^ [ M.M Z F.-.i.} >.l R ' j.Q 9 dXX # j i.9 ] < @.M.yXM.8XX.%X;.w.g.%.&X{.v.n.1.0 S <.u.O.+.u.].s.] f.{ BX7.q.g.v.v.{ ..u uX[ B...<.>.' &.o. .Y.} >.g { B.B.M.r.*.< U t >.} o.] &.o.<.-.uXpX%.%.M.*.&.aX$.%./ 7.$.<.#XpXkXfX%XsXuXiX&.6.&.%.m { E. X[ ",
"[ 6.y.#Xr.7.q.0.1.G.<.i.6.;.# { 0.9.-.+ sX] ;.# p.E ' &.[ {.U.' < 9 %.<.u.t.o.$ ] 1.aXr.v.6 m s.>.J T.[ g Y j.j.&.r.n.&XY m M 8 ].m A.@.>.1.c.n.] $.} v.N t.@.u.<.,.n.[ qX^ { U v.[ } p / %.#. X<.Y / ^ g.j.u.>.c.7.,.t.aX{.T.G.F.B.F.;XL./ ;.F.R 6.*.&.&.v.o.] ",
"j 8.wXy.O.{ r.[ vX{ 8.W &.# h 3.] g U.iXO.0 >.W 2.T 9 u +X).y.< < Y Y F.v.mX>.o.#., Y &X+X*.w.t.;.>.5 0 -.g.R Y $.N.jX9 v.g #.0 = F.k.T.: *X$X<.] $.7.<.j {.f.p 7 1.t.[ 0.R u y.0 k ^ 1.[ 1.>.$X1X&X( g.Y < l } t.aXB.y.7.& t r +.t.g 4XL.u.@.oXY W B.] #.$.7.}.",
"t.} q.] @.h -.nX<.$.9 R ^ E W u 7 M xXk { N.y.5.1 U *.r.Z.+.$.( 2 : z N N aX%.@.@.9.s.8XpXrXe.s.e.sX<.%.^ ^ 2 9 %.;.sXu.< #.5 & g u.Y.n.,.n zXT.>.^ %.} p.+X( W.{.<.#X%.1.8  .[ <.>.t.%.c n.T.M +.U 5.<.%.>.g.n.<.aX9.%.i.= u.@.b 1.+.F.L.y.B.~.Y 0.0.m E.F.%.} ",
"9 bXi.z <.>.n.Y n.@.- $.R T 2 0.7.dXM.&.9.^ sXV.> Y } ;.g 8.< 2 %.N ^ p t $Xj -.e.5.3.f.d.B.r.o.%.B.&.7.7.Y ] } @.1.2 nXsXvXx.u ,.Z Y.p +.M.R.n.t.Y o.r.Z.*Xx.....-.jXo.-.*.%.8 - < < k.1.7.].t.g.*.,.} } t.t.<.X.u.u.0./ 6.u T.+.<.Z x.L l L r.u.%.*.@ x.S 2 v ",
"b v.xXR *.>.] Y *X[ 3 W E s.&.R <.jX1.U M : 8.M.> %.- ] - Q 7 u <Xl $.3 = +X9 $...& * :.%.n {.&.8X9.Q Q ' 6.7.&.X.} ; ,XN M.t.&XkX;XwXe vX#XgX Xu.*.-.v.M v.$.} m 0.n.[ %.{ 7 6 O , [ l 0 o.+.&.>XO.y.;.o.<.3 u u.{.aXuX] _ X.t ] r.%.x.u XXv u.c.2 &.e.+Xu < j ",
"$X&X%.g.9.T.9 E aX<.T 8.-.[ Y O %X{.=.#.e l y.: B.2 l ( E < @.].U.O.h + e t.k >.0 o E o.*.J f.u.m.O.3 ( 6._ k ] 0.] * +.O.c.*.&.@.wXM.*XaX{.$ Z.1.:.1.[ o.t.[ { } 7.] {./ { F h V M 2 D x BX5.m G p O.o.%.- a S S h $X%.-.1.>.e %.:.F.<.+.x.; >.<.' $.t.] * o j ",
"&X1Xt.aX*XM.<.[ kX:.8.] 2 p j 0.dXO.x.5 i ' |.{ 9 N.0 W 3.].Z F.Z t #.P.G %.b *.l l e.:.7.2.^ } #X8 M 7 0 ( Q Q w.dX$.r T.x.8 %.o.q.bX$Xt.o.l o.@.v./ / <.M.[ v.8Xy.h *X%.&.] u +.5 h [ *.n.#.Z m ;.[ m p 0.O.n.V 2 x.z &.] $.n.n.r. X$X] 3 v.@.<.0 { U.[ 7 >.8 ",
"$XU.<.' dXn.o.x zX*., 1 P g r.n.&XN o.+.H.E } ] ] k u.o.1.X zX!.'.G v R.].O.W.>.{ Q d.6.^ } -.k &X<.7 7 7 |.+.{ 0.$.%.Y %Xx.< l %.n.n.xX,.M.U./ ..1.1.&Xn.wXuX,.^ t.l kXf.X W 9 o Z ,.>.W o.U.4 0 >.@.r $ T.7.pXg ; #.%.7.6.6.Q %.r.].+X2.- o.U <.< ] ,.} z O.0.",
"#.3Xr Y g.&Xt.$.zXu.%.*.x %.2 <.&XXX#.@ #.-.2 0 { 7 >.w.7 x g K.U.oX#.[ T.o.T.%.X.i.9.^.z.9 = r #X+X,XM.} #.wXg.n.$.<.(  X%.' %.y.&X6.[ t.,.n.} p <.;.9.0.>.k t >.u.(  X*.& ,.C.^ L.h.8Xs.#X].0 0 x t.t.n.n.+XaX#.} >.@.W 9 9 ^ [ [ {.j.@.( *.{.<.l } u.$.&.m @.",
"G.P Z < 7.+Xy.;.kX] t 8 *.{ <.~.jX<XQ.P %.N.} @.].*X$XpX* #.L G g L ;.<.e #.<.k E ~ u.c.3X/ 7 >.#X%.n.-.M %.c r.k.h > $.}.^ [ [ M.*.^ k +Xz o.t.[ u.7.[ 0 <.0 g ^ 9 j.%X7 *X1Xu.0.0.+.y...$XK.[ [ # @.8 G.(.=X{ 8 } r.M.n.v.] 9 t.1.].v w.d.f.=.%.v.n.{.T.9X*.A.",
"V.A Z ..6.%.+X/ ,X[ O M < 1 t.U.aX;.#.OX{.1.@.a I.L.x &.+Xc A P A O z ] |.,.r.%.2.V g u.<X,.} 9 M.,.:.e j v v.k } wXX.>. X^ @./ v.( ^ { o.1.0 ..y.t.K D.%.<.r.I./ < $.sX[ d.f.V m ..U 2 M.A.m *X#.A R.{.S G M.%X>.O.v.&X<.w.r.M.r.T.B.0 O.-.<.#X%.%...t.M o.aXt.",
"M H.I...' ( v.9 *X0 @ ] L :.1.O.*X5 j #.R e #X,.V.7.} 2.M.).P P g +.F.- #.7.n.&.>.i n [ ,.u.} ] M.M y.jX} u x 0 %.O j pX].] >.{.$.{ M ] o.<.l w.{.dXVX,X*X{.1.:X} : N pX&.p.@.Y.[ { W 9 $.<.@.O.{.F X.{..XN %.[ < g N 1.+.&X,.<.n.t.0.j Y n.:...9.0.1.>.y.y.OXg.",
"AX3Xb 0.7.<.u.n.dX0 5 p I.q.1./.+Xk a p U } #.<.G.>.*.s.1.1.G @ P.k ^.%XM.%.r.r.l # z e %.0.- / n.zX>.[ h $ u 5 #.@.X l pX] sXt._ x M 9 -.j.*.Q.j @.;.^ V r @.%.n.*X+X&Xu 2 X.7.] > - m @.*.[ .Xx [.+.r.L.#X7 < 5 =XN >.+.W # ..v.wXt.y.wX+ ^ x -.8X9X@.j y.s f.",
"=X|.B.N.' 7.^ {.1.] 7 Z e <.x +.aXp 6 5 R G V n.6 2 9 W } B.;.XX<.w x 2 =.6.[ +Xv bX%.9.p T.+.t.zX] { [ 7 v.XXJ.F.#.,.C.,.#X+X/ 5 F b ].uXs.-.=.t.y.f.7.z.4 [ 0 { ( 1.%X{.n.9.t 3.> m G Z.%.e T.c e 1.g.%X#X2 < R.D.U.<.<.T e 7 1.u.u.B.] ] _ B.bX+X] i.%.Y %X;.",
"9.^.9 R R < $.{.[ w [ f l ;.N #.$Xg t E 2.A K.O.{ < n 0.1.aX,XzX&XkXzX,.u.9.&.uX%.0.M # |.q.%X<.r.{ 6 0 ] $ x P ~.} W.[ ,.uXM.Y = V g.$XsX} v [ ,.>.9.%.%.*.7.$.^ <   }.-.,.{.1.R ^ g O O.,.8 #.#.@ o.[ yXwXp.8.p.t.w.e.8.Q O.j >.M.B.8 1.aXsX;.t 7 { r.s.wX&X<.",
"$Xc.u.r.-.- 7 }.>.3 5 0 F.} B X.M.&.{ x > P 3XX e.3 ].^ [ @.x.2Xk t @.c.t.}.-XdXt.v.&X XvXnX*XM.n.0.t 8 8 [ ,.V F E. X1.@.M.} u.<.j.].1.( &.1.>.XXR.>.q.[ n / { &.$.o }.7.u &.+Xc.r.e s G.j 0 z.g b *.[ [ ,.x %.t.K.{.} { 7.u.u.uXB.&XaX0.-.} 0 7 X e #X<.y.gX} ",
"/ Q Y ; -.M.$XvX*X#.7 H c } #.[ T.o.U.T.r.c s < y.,.G I 9 } } K a z %.6.Y <.$XaX{. Xc.j $X%.l $.9.} ZX+.i p { p /.AXL. Xn.o.h n g.c.v.{ H.'.x A G g 6 l } } 9 7 7 Y %.].7.N n.; Y >.:.N +.k 0 Y.q...M.1.h ].t.6.Z U.v.<.< > c X.dXnXB.N.n.v y.t.7 9 N.F.n / B.%.",
"{ 2.U & 1 < wX#X>.v. Xc.v :.T.M.#Xn.+.j ; V.# wX<.+.G > < ] $.%.} 7.r.t.{.<.%.iX>.:.;.%X].0.:.7 / 9.Q.u OXV l 5 P 4X}.T.aX1., { t.bXY e g Y.O.G H.G.n M } N.N.H.C o.M ,.*.} { ; > B 7.@.l u.= >Xc.f.q.6 ..].J d.P.] ;.v.> O.t &X+Xo.t.0.N.j.<.X.] g.r A - ] #X<.",
"r.E U > 1 h ].n.>.l 6 M 1.].M O.{.t.].g.$.M - { +.o.M R < h ] O.t.@.v...M 6.%.n.0.v v.{.#.,.1.<.} } 6.S s R.X.1.T.,X8 o.n.o.1 7.fXt.] O D.+.e u Z U.W.sXM.uX} ^ O o.,.M u.( { ; ; j &.M.uX[ @.c.c 5 9.c [ n.K.p.8 j l 1.Y $.aX;.y.w.*X[ p 9 E U k.[ @ # < :X1XM.",
"/ m.=.{ v. Xt.W.j.Z.* * @.@.1.1.u.>.X.g R N.-..X<.q.] R q.h.e.-.,.>.T x &X{ , M.t l }.x.l t.1.@.t } } Q <X..n.jX,.A.c >.t.k.j.D.M.2 %.+.D.u g u mXsX+X] #.o.7 &.} O.,.1.{ _ R 2 &  .&X%.o.>.6 j p g 0.6.r.qXg.6Xl 0 0 @.1. X>.L.uX-.].V c  .h g.{ < v + r !.#.<.",
"9 ( R 2 ^ >.#.zXn.j.* = #.0 ^ o.}.,.o.O ; % %.g.>.N.r.$.2 Y <.+X&XM.B.pXpXxXsXpXM.#Xh.%Xg o.^ ..@.[ } *.r.+XX.1.O.o.M n.BX+X$XbX&.7 ,.,.d >.x %Xv.,.*.- u a A V +.0.@.N ( $.< 2 { $XN $.} / 0 8 X.V s.S.8.M.n.p.%.7.q.>.T.r.<.pXM.;.k @.@.M <.{ 1 ; ; v c.P.V.r.",
"0 ^ $.} 1.:.,XO.:.@.q.@.6.` g.7.N @.o.3 % , q.u.<.w.t t 7 ..[ / =.: *.,.@  X2 M.t.r.t.t.vX[ 0 ] l ..[ g.B.Y @.[ <.%.k.M.*XuXpXM.1.aXkXj.@.} n.m # zX] z U.@X-.*.*.g.j.%.$.$.N n.] : $.-.X { x @. X~.mX*X+Xn.G Q ] %.>.t.f.M.-.{ n.v.e M c.>.[ l , * 2 <...u O.-.",
"7 Y %.0 T.$Xn m <.,.t n.r  X6 @.x [ @.o.*.<.j A P %.r.,.l ] - 9 2 { %.o B z.jXM.1.F.5XVX1.<.%.9 -.;.M.;.9 >.%.( ;.j.[ y.:.<.aX1 ; lXV.1.<.j.u.h 2 q.B.$.#.m N H.V.@.%.( Y 7.n.l m : 0 i.p 7.Z (.A } 3 R M {.T.t.k h ,.;.r.} f.{ %.@.t T.U.y.] <.{ x %.2 h # k %.",
"e } y.n.+X.Xt.# M.@.u g.].9 F.X.$ 3 %.:.*XU.N A K.} %.-.n.&X<.< @.-.} ] k f =.n.M.V (.dXr.o.=.d.%.$Xh.;.0 n.R +.g.h i.r.;.<.{.p &XN u ;.<.r._ &.q.H.*Xj Z !.,Xa v l { r R #X] X V 7 7 U 6.l g A L } x [ ^ <.y.t.t.@.o.<.%.< } 0.*.l x.[ 7.8.v.( >.B.+.@.e 5 } { ",
"1.r.;.1.zX# Z B.} r M W.9.(.g M j *.[ 0 l 0 e L.,.<.} [ n.r.aXBXl -./ - R N b.{.[..XE.#Xs -.v R.k.%.&.t.;.9 { g.[ < P 8X/ +X&X X&X$.9.*./ y.,.f ).<.M.O.CXV.Z.b ..7 ] N &XwX& g v +.p 9.i.6.$.k l v G K.N.-.&.sX+.M.;.%.h 9 0 z %.*.%Xy.] e mX_ p./ &X,.@ M >.O.",
"1.7.%.1.M.b -X+.0 l #.+.-.t.N >.q.O.G `.0 0 7 p S ] ,...t.m.9.7 zXM.= < wXR <...u M *X1.,.t j t.-.m %./ 1.( e.v.9 X u r.i.$X&X.Xm n.%.$.#X%.l 8 (.5XU.zXk %Xp ..8 <.r =.<.2 x ,.L.K.V k >.7 = Z k ] k K.}.j.t.*.&X<.;.] < : 9 h r.v <.n.1.c.*X{ {.W t O.&X+.t.{ ",
"@.( 9 n.&X#X# +.8 } t.v 7 &.r.g.s.6XB.>X[ 0 7 A +.^ O.#.@.s.{ Y t.M.%Xr.( #.<.j u x zX} u U.r.<.x { 0.} 1.r.Y ^ ] 4 x -.R.n.B.=X%.} R n.l %.v g 3XQ.$XaX$.<.o.o.e f >.n.Y o j U.S A Z l =.= ] h M g m [ { p.;.w.pX&X%.w.< & 4 3 %.0.u.B.sX$Xc.5 N $ { ] } #Xr.J.",
"W M 1 kXg.O.g 7 ,.Z.#.8 [ $.( + < e i.{.j.n. XW.1.v.v.t R.>./ 9 6  Xk vXpXn.{.+.*.v &X<.X {.iXo.<.7.R Z.%.-.9 > } r 9 %.1.k.pX9 ] { u.^.l y.9 o x  X6 <.V.-.&XX.# X 1.%.< = @.L } x e 8 W - U 7 i P L ,.*.R w.} %.o.#X} p.3 e Z 5 M.uX1.<.o.r.#.l.v D } 9 ] #X>.",
"Y ; n.&X%.n U...v l O.#.2 Y $.V x { ,.+.G.>.9.[ [ / 9 ..u...l 9 7 n.u.M $X>.o.[ gX{.1.%.u uX<.r 0 ' 7 p *.l ] < ; T.Y { +Xt.pX9 { p.c v } / 3 k v.Z < +.H.T.0.M.F.+.+Xm.[ %.Z A t { o > ] I <.M. XM.pXu.-.{ p.[ w.d.9 pX<.0.,.n +Xr.%.[ -.0.=.t n <.u.y.*.r.>.wX",
"M.0.%Xn.M 7 O.{ ( l r k 2 x R j g . N 7Xu x.# ;.&.8 { d.Y.[.1.<./ <.v.j ] {.t.y.>.U.{.} +X>.g +.- Y 9 $.M V.M = ; M._ <.M.,.#X( i.@.g 9 *.= r  X* e 4 x @.x.= &Xv.r.>.2 j v A (.Z > } > 8.+ M } D.u @ 0 { %.g.g.s.N.9.M.B.6X[ wX..<./ %.} R %.w.h ..aX{.] } g.9 ",
"<.} $Xj x ].a V X.} R [ 7 _.z 9 @ u Z !.,.F.V.0 ( ' 8.b D.u u v ..0.,.< ] v.%X%.,.OXu @.n.} @ [ u @.Y { # x +.5 q.T ..o.t.c.M.8.} S M 2 ] .  XS V P `.I.*XG @.v.1.<.} ^ *.u Z g Z o.j.8.Y # ,.6.# u C 9 9 9 / 5.` M.t.%.[ hXj.l f.0 %.< 8 } q.7.%X}.P O.l >.Y   ",
"] k.$Xk ..t G u m < < / ( x 5 Y '.V P u $X!.o.t.' k 6.y.m g $ V X.q.kX] ] >.h $XA.T.H <.o.l r } g %.{ %.z .XpXpXN.M.$X<.t.1.y.i.[ # $.. j 1.H.I.V A P I.&X,.] x &X9 x 5 $.@ D.c.,.R.T $.j.$.-.Q %.Z 0 9 7 = 9 8.9 ^ pX9 M.sXu.} < %.*.7 $.+.v.*X[ n ].t [ r.Y $ ",
"%.t.].u O.F.U.u V 8 < 6 g ] n 2 E.u g X k sXV.S sXr.N -.R ).u %.K.%.%X/ n.2 $ pXo.|.l 1.9 [ 9 $.<.$.{ o Z V t.o.p 0 ..8 t.B.M.B.-.t 9 j >.|.Z P A '.A K.$Xx ].j n.9 8 e } [ z H.G Y.{ *.( &.y.% S -.^ 7 # 7 ^ 2.& Y M.-.pXB.#XN.r.y.^ *.h %Xn.< 9 r %.7.[ ;.&.p.",
"%.<.1.Y.a [ 1.V A & : @ _.I.2 Y - u u A i 8.+X@.Y wXG.g 2 Y >.g { k ..*Xj.&.s uX>. X} 1.j { ( k 1.( 5.Q C.+.2 z &X0 7 7 @.r.y.3 6.j.t.o.1.3XX # G (.K.S v.<.3 8 ;.#.} 9 9 n.+ G A $.Y Y ] 7 0 y.{.7.j.R p ] ( ] Y > %.M.BXpXuXy.$.< g.#XkXr.m ; 0 9 +./ 8X$.< t ",
"u.o.@.;.3XN >.s +.Z m V L L L ' Y X.v V i 2.x.{ } <.].g `.2 1 M.<./ 0 %Xc.5 e M.M {.o.>.g ^ 7 { %.9 j `.*.q.#.Y.1.6 6 b @.7.t.4 E 1.i.>.1.B.N V e d _.;.1.g p 0 ] v.} 9 1.7 < T.;.<.1 2 B J * G r.^ $.O.%.* ( ] T Y y.B.+Xn.#XpXB.^ 0.kXY.>.X.R < -.8.q.@.r * 6 ",
"<.,.H.} G.e ] 4 A K.R.V.c &XH.< < O.y.A P ] l  X9.e #XA Z V 9 1 N.7 [ M.U.V ].M.e ,.@.o.-.< - # 1.&.z [ r 9 q.1.#XU.L N @.t.%.e 2 c.R y.y.[ } +.g s j <.>.Z p 0 x v.x 1.8 < c.>Xk x.l.x._.J -Xy.;.y.iXyXi.9.7.>.&.j.*.r.O.]. X-.y.pXaX} s @.Z.+ $.0./ } z $ ' k ",
"h @.Z.Y.6.j l 5 V P g %.v.V.g ; < + K.(.O.;.R <.y.u.t.<.j g m , *.%.] }.kXr.G.#.<.XX>.[ ^ } w.j n.< x ] k <.M x s.x g N o.y./ t.&XY y.y.q.G {.] } t j >.@.u 3 7 o t.+X~.Y qX}.&XsX-.P T.L.e XX_.3Xe v.y.# | R 9.qX6.&.iX[ S wX[ t.@X} #X-.1.P.%.7.9 7 @.v.u u M.",
"F.@. X~.] }.j 5 Z P ] t R.R.u ; * [ '.Z g S Q w.sX,.g.@.3 ;.D.3 *.M.v.dX,XXX%X6.} +.,.[ 5 X O <.uXj.# <.<.g # G %.$.R r o.y.8 >.N.8.e.q.9XXX+.%.g.0.r.n.sXb.t.r.o.t.C.x 9 M.j.$XR kXv.M O.r oXV AXZXT.f.= +.q.7.&.T ( aXy.} B.q.$X*.9.B.M.{.6.M.t.< < l ,.u X.%.",
"Y ;.O.$ [ ].j # c.( R.P mXI.A.* ; ..K.P F.M.d.$.v.p B.v.u u c ] n.W xX1.#X#.l <.n.;.,.l . } 0.%.:.*.q.[ 0.3 u Z %.e 6.T [ %.#  Xj r.[ @.*XxX< 1.j 0 0 ....8 p F.S t.n.B.wX.XM iXs.#.*X,.<.7 =X;X%X~.{ $.7.:.^ q.%.&.&.1.B.9.g.{.,.sXbXwX] -.r.7 [ : G 0.x Z 1.] ",
"T b ..V nX0 8 K * X.S.g :XG Z [ 5 A.@.M.!.G T Y } <.} B.t u v #.-.m.{ @.x.].@ [ *.%X@.o.} W h 3 9 8 g.d.h 9 # a ..u VXT %.[ j {.B.u.M.2 ^.8XQ 2 < 8 0 [ l 8 p G j o.V.D.k.%.y.+Xg.r .XJ.t n.aXY.b R.[ Y 0.y.%./ ^ $.iX9XwXe.r.n.M.vX^ r.2.9 r.B.n.. K } . %.;./ ",
"7 j @.N .X0 o 4 : o.h h -XL #.U.Z.j.h Z d u U Y h 1.{ y.#.[ D >.iXW ^ w.;.T.V =XB.>.v.../ u @ J.J.0.} o.*.{ 5 L #.u XX2 %.%.pX1.{ l ;.* [ j.g.H p < 1.u.[ t + L 7 o.%X].w.( 7 z q.g.1.kXF.,XF.+Xc t.< Y v.r.{ 9 6.x +Xx t.+.B.B.e.#XhXwXN.M.j >.g.i.( w.1.1.9 ^ ",
"- v.v p ,X8 4 = C H.L :.aX'.F.<.t.l X.,.u.$.U 2 r >.,.} m.P.H.{.%.qX7.<.uXaX,.r *.k B. X7 $ g C.pXl ..M Z M.{ G p 7 2 u.%.u.cX= ( %.7.-.d.j.l R 5 w 0 o.uXm.`._.c 1.lX%.u.j.g < F.7.h.&XMXx.F &X%.M.<.R e.8.6.%.%.[ #Xe 1.t.u.<.pXwXcXsX8.Q 3.$.-.[ l } %.+.9 7 ",
"n.= l 6 %Xo.@.V @X(.(.(.aX..0.`.x t 1.u u x 6.p.z.o.X.} w.~.M.O.2.t.rXB.c  Xi t { M.%.>.M.x..X@.A #.[ iXlXW.g.%.j q.0.hX>.M.8.s.5./ 0 ] ;.M...E [ k.0 8 X l gXQ.N vXx - %.g.#Xg U.T.pXB.cXyX*.M.y.M.v.x.&Xh $.&.< h }.#.u.t.M.B.pX} $.sXR Y E 8.E -.-.*.h t.9 5 ",
"9 . ,.O.*X1.k aXnX=X=X>XpXj.>.G p U.] }.W.1.7.M.g.N.g.<.| N.0.g.BXgXn.B.v }.u j 1.u.r ..{.B.q.n A T.&.[ D.3XZXlXBXbXj.B.*.&X1 <.< 0 ( ] } F.<.< -.x } t H.G A M.pX].c M ( 8X} l >.&X@.0.u.u.$.%X; <.9 5 #Xu.pX%.M.X t.*.u.M.#X} 1./ / aX&.$.yXg t Y -.*.9 < ( -.",
"O X.1.M.vXlXF.A kXF.t.,.M.*Xt.B.u.1...%.aX#X7.<.j 9 9.$.%.u.*.-.^ sXoXM g.}.u : oXn.v.H.o.[ { #Xu w.@.pXv L.nXrX6.w.aXdXwX#X*.<., ; 7 { %.M %.c &.P ,.A Q.V S 1 bXt.t 9 8.r.7.} 1.pX4 z.7.{.f.].1 ;.t p M.rX[ o.< v.M.j.wXw.g.e >.9 / g.-.&.{ >XU.v l N.9 = w.z ",
"1.>XOXhXOXZ L.1XY.T.k &.<.>.a.} J.%.<.*Xn.] %.rX: 9 >.].M.r.>.L ] pXr./ *.].u 1.c.1.} L ;...n 8XpXXX}.y.M.|.n.Q { e.$.{ aX&X6.N.g.$.3 0 $.h q.V 6.4XK g.5XZ 2 |.{.>.v.W j.9 @ o.kXkX%XzXgX&Xt.B.&.>.t h B.*.{ u.g.y.M.n.o.k <.z } %.] %.v.: 2 &.#.R.{.u.0 *.[ ] ",
"M @.p vX.Xg Y.mXx b u.G.R.g.dXg.0.,.Z |.2 } } n.-.[ >.o.M.&X>.u u.2 x.4.z pX#.+.#.zX{ { N e.=.*X] v.aXiXY R =.5 / y.Y M.xXM. X%.R $.0.%.9X{ M.y.0. .2X$XF.7 p nX1.[ >.j.{ {.kX*Xo.>.[.{.+.r.{.;.( ] / %.u.&.j.e.%.u.>.X.,.1.<.] 1.9 [ *.&X& x 2 d.~.N.-.B.Y ;.<.",
"<.u u {.%XA Q.,X[ ^ %./.=.r.6Xq.B.NX*X%XU.*.[ <.y.1.[ <.[ b.n.l r.< ,.X 9.&X0.M +XD.y.g.j.=.@.>.#.,Xn.n.sX$.e x.] dXB.l +Xv p }.>.* 2 wXn.{ B.v.q.R Y.z.<.% +.U.&X5 k #X$X%.@.U.9 W.1 v.%.]  Xl.9.9 0 g.q.qX1 *.B.M.u.>.n.>.1.9 ..0 %.k +X6 z < u.d.< d.g.>.>.> ",
", v u t.%XV F.zX^ ] b ;.9 n.&.w.d.e 1X|.T.w.#Xt.<.g.} { bX|.t.#Xv.%.v.O :.,.aXv.M u M { ] G.>.B.#XzXzXM.g.Y O.aX=XY.R Y M.r V M ,.o.T aXY *.y.p ,.&Xn.#Xy.=  X< r.$X+X9 n.*.1.D x %.W S X.^ }.t ] _ 0.y.-Xr.} f.r.r.r.<.%.1.x t [ [ l : r.Z n u.p.$.< s.%.k >.u."
};
